X:1
T:Svētā Andreja mise
T:pr. Andris Solims, 24-02-2011
T:Dieva Jērs
T:Copyright © Andris Solims
T:Svētā Andreja mise
T:Copyright © Andris Solims
T:Copyright © Andris Solims
T:Copyright © Andris Solims
T:Copyright © Andris Solims
T:Copyright © Andris Solims
T:Copyright © Andris Solims
T:Copyright © Andris Solims
T:Copyright © Andris Solims
T:Copyright © Andris Solims
T:Copyright © Andris Solims
T:Copyright © Andris Solims
T:Copyright © Andris Solims
T:Copyright © Andris Solims
T:Copyright © Andris Solims
T:Copyright © Andris Solims
T:Copyright © Andris Solims
T:Copyright © Andris Solims
T:Copyright © Andris Solims
T:Copyright © Andris Solims
T:Copyright © Andris Solims
C:pr. Andris Solims,
C:24-02-2011
Z:Copyright © Andris Solims
%%score [ ( 1 2 3 ) ( 4 5 ) ] { ( 6 7 10 ) | ( 8 9 11 ) }
L:1/8
Q:1/4=100
M:4/4
K:Eb
V:1 treble nm="SOPRANO ALTO" snm="S."
V:2 treble 
V:3 treble 
V:4 bass nm="BASSO" snm="B."
V:5 bass 
V:6 treble nm="Organo" snm="Org."
V:7 treble 
V:10 treble 
V:8 bass 
V:9 bass 
V:11 bass 
V:1
!mf!"^Moderato" B4 cBAG | (F2 A2) G4 | B4 cBAG | (F2 A2) G4 |!mp! G3 G AGFE | D4 E4 | G3 G AGFE | %7
w: Kungs, ap- žē- lo- jies|par _ mums.|Kungs, ap- žē- lo- jies|par _ mums.|Kris- tu, ap- žē- lo- jies|par mums.|Kris- tu, ap- žē- lo- jies|
w: |||||||
w: |||||||
 D4 E4 |!f! B4 ABcB | (B2 AG)!mf! A4 | A4 FGAc |"^rit.""^rit." (c2 BA) !fermata!G4 |] %12
w: par mums.|Kungs, ap- žē- lo- jies|par _ _ mums.|Kungs, ap- žē- lo- jies|par _ _ mums.|
w: |||||
w: |||||
"^Allegro moderato"[Q:1/4=120][Q:1/4=120] z18 ||[M:4/4]!mf! E2 FG A2 B2 | c2 B2 A2 G2 | F2 A2 G4 | %16
w: |Un miers virs ze- mes|la- bas gri- bas|cil- vē- kiem.|
w: ||||
w: ||||
!f! E4 F2 E2 | A3 A A4 | F4 G2 F2 | B3 B B4 | c4 B2 c2 | (B2 A2) G2 F2 | E2 F2 G2 =A2 | B4 B2 B2 | %24
w: Mēs Te- vi|sla- vē- jam,|tei- cam un|pie- lū- dzam,|mēs Te- vi|cil- * di- nām|un Tev pa- tei-|ca- mies, jo|
w: ||||||||
w: ||||||||
 c2 BA B2 G2 | A2 GF B4 | B2 c_d c3 c | c4 B3 c |"^rit.""^rit." _d2 cB !fermata!A4 || %29
w: lie- la ir Ta- va|go- dī- ba, Kungs,|de- be- su Ka- ra-|li, Dievs, vis-|va- re- nais Tēvs.|
w: |||||
w: |||||
[K:Db]!mf!"^Meno mosso" F2 FF FF G2 | A4 G2 A2 | B4 A4 | F2 A2 A2 AA | A4 G2 E2 | (G4!mp! F4) | %35
w: Dievs, vien- pie- dzi- mu- šais|Dēls, Jē- zu|Kris- tu,|Tu – Dievs, Die- va|Jērs, Tē- va|Dēls. _|
w: ||||||
w: ||||||
"^Tranquillo"[Q:1/4=65][Q:1/4=65] B2 B2 B2 BB | _c4 B4 | B2 =c2 d2 c2 | (B2 =A2) B4 | B2 B2 B2 BB | %40
w: Tu nes pa- sau- les|grē- kus,|ap- žē- lo- jies|par _ mums;|Tu nes pa- sau- les|
w: |||||
w: |||||
 _c4 B4 | B2 =c_d c2 B2 | B2 A=G A2!mf! A2 | d2 AB c2 B2 | B2 A=G A2 F2 |!mp! E2 F2 G2 G2 | %46
w: grē- kus,|uz- klau- si mū- su|lūg- ša- * nu. Tu|sē- di pie Tē- va|la- bās * ro- kas,|ap- žē- lo- jies|
w: ||||||
w: ||||||
 (G4 F2 E2) | F4 !fermata!z4 ||[K:Eb]!mf!"^Tempo I" E2 FG A2 Bc | B6 z2 | F2 GA B2 AF | (G4 A4) | %52
w: par _ _|mums.|Vie- nī- gi Tu e- si|svēts,|vie- nī- gi Tu e- si|Kungs, _|
w: ||||||
w: ||||||
 B3 c _d2 cB | c4 (_d2 B2) | A2 =G2 B4 | A2!f! E2 F2 E2 | A4 A4 |!ff! F2 F2 G2 F2 | B3 B B4 | %59
w: Tu – aug- stā- *|kais, Kungs *|Jē- zu Kris-|tu, ar Svē- to|Ga- ru:|Die- va Tē- va|go- dī- bā.|
w: |||||||
w: |||||||
 c4 B4 | A4"^-"!fff! G4 |"^rit.""^rit." F2 A2 (G2"^Man." F2) | G6 z2 |] %63
w: A- men,|a- *|a- men, a- *|men.|
w: |a- men,|||
w: |a- men,|||
[M:4/4]!f!"^Andante"[Q:1/4=80][Q:1/4=80] B4 c4 | B3 A G4 | E2 E2 FE F2 | (G4 F4) | E2 EF G2 GA | %68
w: |||||
w: |||||
w: |||||
 B2 B2 c2 B=A | B4 G3!ff! B | c3 B A2 GF | (G4 F4) ||!mf! (E2 F2) G4 | (F2 G2) A4 | G2 =A2 B2 c2 | %75
w: |||||||
w: |||||||
w: |* * Ho-|san- na aug- stu- *|mos. _|_ _ _|||
 (B2 =A2) B3!f! B | (B2 _AG) A3 A | (A2 GF) G3 F |"^-" G3 c B2 =A2 | B6 z B | (B2 AG) A3 A | %81
w: ||||||
w: ||||||
w: |||* * aug- stu-|mos, *||
 (A2 GF) G3!ff! _B |"^rit.""^rit." c3 B A2 GF | !fermata!G8 |] %84
w: |||
w: * * * * ho-|san- na aug- stu- *|mos.|
w: * * * * ho-|san- na aug- stu- *|mos.|
[M:4/4]!mp!"^Andante"[Q:1/4=80][Q:1/4=80] (G4 A2) G2 | (F4 E2) D2 | (E2 F2) G2 AA | (B2 AG) F4 | %88
w: Die- * va|Jērs, _ kas|nes * pa- sau- les|grē- * * kus:|
w: ||||
w: ||||
 F2 G2 A2 c2 | (c2 BA) G4 |!mf!"^-" (c4 B2) =A2 | (B4 _A2) G2 | (F2 G2) A2 Bc | (B3 A) G4 | %94
w: ap- žē- lo- jies|par _ _ mums!|Die- * va|Jērs, _ kas|nes * pa- sau- les|grē- * kus:|
w: ||||||
w: ||||||
 c2 c2 B2 A2 | (A2 GF) G4 |!f!"^-" (G4 =A2) B2 | (B4 =A2) G2 | (=A2 B2) c2 BA | =A4 B4 || %100
w: ap- žē- lo- jies|par _ _ mums!|Die- * va|Jērs, _ kas|nes _ pa- sau- les|grē- kus:|
w: ||||||
w: ||||||
!mf! B4 c2 B2 | (B2 AG) A4 |!mp!"^rit." (A2 c2) B2 A2 |"^rit." (A2 GF) !fermata!G4 |] %104
w: dā- vā mums|mie- * * ru,|dā- * vā mums|mie- * * ru!|
w: ||||
w: ||||
V:2
 G4 AGFE | (E2 D2) E4 | E4 EEDE | (C2 D2) E4 | E3 E FEDC | (C2 =B,2) C4 | _B,3 B, CEDC | B,4 B,4 | %8
w: ||||||||
w: ||||||||
w: ||||||||
 G4 FGAG | (G2 F=E) F4 | F4 D_EFA | (A2 GF) E4 |] x18 ||[M:4/4] E2 FG A2 B2 | AF =E2 CD _E2 | %15
w: |||||||
w: |||||||
w: |||||||
 EC DF E4 | E4 F2 E2 | C3 C C4 | F4 G2 F2 | E3 F G4 | A4 G2 A2 | (G2 F2) E2 D2 | C2 D2 E2 E2 | %23
w: ||||||||
w: ||||||||
w: ||||||||
 (E2 DC) D2 D2 | E2 EE E2 E2 | E2 DD (E2 A2) | G2 AB A3 A | (A2 _G2) F3 F | F=E_E_D C4 || %29
w: ||||||
w: ||||||
w: ||||||
[K:Db] D2 DD DD E2 | F4 E2 D2 | (D2 C2) (F2 E2) | D2 G2 F2 FE | (D2 C2) B,2 B,2 | (C2 E2 D4) | %35
w: ||||||
w: ||||||
w: ||||||
 D2 E2 F2 EF | (G2 F2) (G2 E2) | D2 E2 F2 G2 | (FDCE) D4 | D2 E2 F2 EF | (G2 E2) =D4 | %41
w: ||||||
w: ||||||
w: ||||||
 E2 GG =G2 G2 | =G2 F=E F2 _G2 | F2 F=G A2 _G2 | G2 F=E F_E D_C | B,2 =D2 E2 E2 | (E2 C2 _D2 C2) | %47
w: ||||||
w: ||||||
w: ||||||
 D4 x4 ||[K:Eb] E2 FG A2 EE | E2 GF E2 x2 | F2 =EF DF_ED | E4 FE F2 | G3 A B2 AG | %53
w: ||* e- si svēts,||Kungs, e- si Kungs,||
w: ||||||
w: |* * * * * svēts,|_ _ _ _||||
 (A2 _G2) (F2 _D2) | C2 B,2 _D4 | C2 E2 F2 E2 | C4 C4 | F2 F2 G2 F2 | E3 F G4 | E4 E4 | %60
w: |||||||
w: |||||||
w: |||||||
 (C2 B,4) C2 | C2 CD (E2 D2) | E6 x2 |][M:4/4] G4 A4 | G3 F E4 | C2 C2 DC D2 | (E4 D4) | %67
w: |||Svēts, svēts,|svēts ir Kungs|de- bess- pul- * ku|Dievs. _|
w: |||||||
w: |||||||
 E2 EF E2 EE | D2 F2 E2 DC | (D2 EF) E3 G | A3 G F2 ED | E2 EC D4 || (E2 D2) (E2 _D2) | %73
w: De- bess un ze- me ir|Ta- vas go- dī- bas|pil- * * na. Ho-|san- na aug- stu- *|mos, aug- stu- mos.|Svē- * * tīgs,|
w: ||||||
w: ||||||
 (C2 =E2) (F2 _E2) | D2 ^F2 D2 E2 | (D2 CE) D3 G | (G2 F=E) F3 F | (F2 _ED) E3 D | E3 D G2 ^F2 | %79
w: svē- * tīgs, *|kas nāk Kun- ga|vār- * * dā. Ho-|san- * * na, ho-|san- * * na, ho-|san- na aug- stu-|
w: ||||||
w: ||||||
 G2 G=F E2 x E | E4 D3 F | (DC=B,D) E3 _D | E3 E CE =D2 | E2 B,C !fermata!B,4 |][M:4/4] E6 E2 | %85
w: mos, aug- stu- mos, ho-|san- na, ho-|san- * * * na, ho-|san- na aug- * stu-|mos, * aug- stu-||
w: ||||||
w: ||||||
 (D4 C2) =B,2 | (C2 D2) E2 EE | (DEFE) D4 | F2 =E2 F2 A2 | (A2 GF) E4 | (E2 G2 ^F2) F2 | %91
w: ||||||
w: ||||||
w: ||||||
 (G4 =F2) E2 | (D2 _D2) E2 GA | (G3 F) E4 | E2 E2 =E2 F2 | (F2 _ED) E4 | (=E4 F2) G2 | %97
w: ||||||
w: ||||||
w: ||||||
 (G4 F2) =E2 | (F2 =E2) _E2 DE | (F2 E2) D4 || G4 A2 G2 | (G2 F=E) F4 | (F2 _E2) D2 D2 | %103
w: ||||||
w: ||||||
w: ||||||
 (F2 ED) E4 |] %104
w: |
w: |
w: |
V:3
 x8 | x8 | x8 | x8 | x8 | x8 | x8 | B,2 A,2 G,4 | x8 | x8 | x8 | x8 |] x18 ||[M:4/4] x8 | x8 | x8 | %16
 x8 | x8 | x8 | x8 | x8 | x8 | x8 | x8 | x8 | x8 | x8 | x8 | x8 ||[K:Db] x8 | x8 | x8 | x8 | x8 | %34
 x8 | x8 | x8 | x8 | x8 | x8 | x8 | x8 | x8 | x8 | x8 | x8 | x8 | x8 ||[K:Eb] x8 | x8 | x8 | x8 | %52
 x8 | x8 | x8 | x8 | x8 | x8 | x8 | x8 | x8 | x8 | x8 |][M:4/4] x8 | x8 | x8 | x8 | x8 | x8 | x8 | %70
 x8 | x8 || x8 | x8 | x8 | x8 | x8 | x8 | x8 | x8 | x8 | x8 | x8 | x8 |][M:4/4] x8 | x8 | x8 | x8 | %88
 x8 | x8 | x8 | x8 | x8 | x8 | x8 | x8 | x8 | x8 | x8 | x8 || x8 | x8 | x8 | x8 |] %104
V:4
!mf! E,4 D,E,F,G, | (A,2 B,2) E,4 | G,4 A,G,F,E, | (A,,2 B,,2) E,4 |!mp! C,3 C, F,G,A,A, | %5
w: |||||
 G,4 C,4 | E,3 E, A,=A,F,F, | (B,2 _A,2) G,4 |!f! E,4 E,E,D,E, | (C,2 D,=E,)!mf! F,4 | %10
w: |||||
 (B,,2 D,F,) A,G,F,D, | (B,,2 C,D,) !fermata!E,4 |] %12
w: ||
"^Celebrants (Kantors)" (E,F, A,2) (G,"^-"A, B,2) G,2 (B,2 A,)G, !fermata!G,4 || %13
w: Gods _ _ Die- * * vam aug- * stu- mos,|
[M:4/4]!mf! E,2 F,G, A,2 B,2 | A,2 G,2 F,2 G,A, | B,2 B,2 E,4 |!f! E,4 F,2 E,2 | A,3 A, A,4 | %18
w: |||||
 F,4 G,2 F,2 | G,3 F, (E,2 _D,2) | (C,2 =D,2) =E,2 E,2 | F,4 B,2 A,2 | G,2 F,2 E,2 C,2 | %23
w: |||||
 B,,4 B,,2 B,2 | A,2 G,F, G,2 B,2 | C2 B,A, (G,2 F,2) | E,2 F,G, A,3 A, | (F,2 E,2) _D,3 [C,=A,] | %28
w: |||||
 B,_A,G,E, A,4 ||[K:Db]!mf! D,2 D,D, B,,B,, C,2 | (D,2 =D,2) E,2 F,2 | (G,2 E,2) (A,2 G,2) | %32
w: ||||
 F,2 E,2 D,2 D,E, | F,4 E,2 G,2 | (A,4 D,4) |!mp! B,,2 C,2 D,2 C,D, | (E,2 D,2) G,4 | %37
w: |||||
 F,2 =A,2 B,2 E,2 | F,4 [B,,B,]4 | G,2 C,2 D,2 G,F, | A,4 (B,2 A,2) | G,2 E,E, =E,2 C,2 | %42
w: |||||
 F,2 F,2 F,2!mf! _E,2 | D,2 F,=E, _E,2 C,2 | E,G, A,2 D,E, F,A, |!mp! G,2 F,2 E,2 D,2 | %46
w: ||||
 (C,2 E,2 A,2 [A,,A,]2) | D,4 !fermata!z4 ||[K:Eb]!mf! E,2 F,G, A,2 G,A, | G,2 B,A, G,2 z2 | %50
w: ||||
 A,2 G,F, B,A,F,[B,,B,] | (E,2 C,2) B,,C, D,2 | E,3 F, G,2 E,2 | (A,2 =A,2) (B,2 B,,2) | %54
w: ||||
 E,2 E,2 G,4 | A,2!f! E,2 F,2 E,2 | A,4 A,4 |!ff! F,2 F,2 G,2 F,2 | G,3 A, B,4 | A,4 G,4 | %60
w: ||||||
 F,4!fff! E,4 | A,2 F,2 (B,2 B,,2) | E,6 z2 |][M:4/4]!f! (E,2 G,2) A,4 | B,3 =B, (C2 _B,2) | %65
w: |||||
 A,2 =A,2 F,2 F,2 | (E,2 C,2 B,,4) | E,2 G,A, B,2 CC | B,2 A,2 G,2 F,F, | (B,,2 C,D,) E,3!ff! E, | %70
w: |||||
 A,3 B, B,2 B,2 | E,2 G,=A, (B,2 _A,2) ||!mf! (G,2 A,2) B,4 | (A,2 B,2) (C2 =B,2) | %74
w: ||||
 _B,2 =A,2 G,2 C,2 | F,4 B,,3!f! E, | (C,2 D,=E,) F,3 _E, | (D,B,,C,D,) E,3 A, | G,3 ^F, D,2 D,2 | %79
w: |||||
 G,2 B,A, G,2 z G, | (G,2 F,E,) F,3 B, | (B,A,G,=B,)!ff! C3 _B, | A,3 G, F,2 B,,2 | !fermata!E,8 |] %84
w: |||||
[M:4/4]!mp! E,6 E,2 | (B,,4 C,2) F,2 | (E,2 D,2) C,2 =B,,B,, | (_B,,C,D,E,) B,4 | A,2 G,2 F,2 D,2 | %89
w: |||||
 (B,,2 C,D,) E,4 |!mf! (C,2 E,2 D,2) D,2 | (G,4 A,2) =A,2 | B,4 C2 B,_A, | (B,3 =B,) (C2 _B,2) | %94
w: |||||
 A,2 A,2 G,2 F,2 | (B,2 B,,2) E,4 |!f! C,6 C,2 | (=E,4 F,2) B,2 | (=A,2 G,2) F,2 F,F, | F,4 B,,4 || %100
w: ||||||
!mf! E,4 =E,2 E,2 | C,4 (F,2 _E,2) |!mp! (D,2 C,2) B,,2 B,,2 | D,4 !fermata!E,4 |] %104
w: ||||
V:5
 x8 | x8 | x8 | x8 | x8 | x8 | x8 | B,,4 E,4 | x8 | x8 | x8 | x8 |] x18 ||[M:4/4] x8 | x8 | x8 | %16
 x8 | x8 | x8 | x8 | x8 | x8 | x8 | x8 | x8 | x8 | x8 | x8 | B,,2 E,E, !fermata!A,,4 ||[K:Db] x8 | %30
 x8 | x8 | x8 | x8 | x8 | x8 | x8 | x8 | x8 | x8 | x8 | x8 | x8 | x8 | x8 | x8 | x8 | x8 || %48
[K:Eb] x8 | x8 | x8 | x4 x4 | x8 | x8 | x8 | x8 | x8 | x8 | x8 | x8 | x8 | x8 | x8 |][M:4/4] x8 | %64
 x8 | x8 | x8 | x8 | x8 | x8 | x8 | x8 || x8 | x8 | x8 | x8 | x8 | x8 | x8 | x8 | x8 | x8 | x8 | %83
 x8 |][M:4/4] x8 | x8 | x8 | x8 | x8 | x8 | x8 | x8 | x8 | x8 | x8 | x8 | x8 | x8 | x8 | x8 || x8 | %101
 x8 | x8 | x8 |] %104
V:6
!mp!"^Moderato" B4 cB AG | F2 A2 G4 | B4 cB AG | F2 A2 G4 |!p! G4 AG FE | D4 E4 | G3 G AG FE | %7
 D4 E4 |!mf! B4 AB cB | B2 AG A4- | A4 FGAc | c2 BA !fermata!G4 |]"^Allegro moderato" z18 || %13
[M:4/4] E2 FG A2 B2 | [Ac]2 [GB]2 A2 G2 | F2 A2 GB=A_A | G2!f! B2 A2 B2 | A4 A4 | F4 =G2 F2 | %19
 B3 [AB] BGAB | [Ac]4 B2 c2 | [GB]2 [FA]2 [EG]2 [DF]2 | E2 F2 G2 =A2 | B6 B2 | c2 BA B2 G2 | %25
 A2 GF B4- | B2 c_d c4- | c4 B3 c | _d2 cB !fermata!A4 ||[K:Db]!mp!"^Meno mosso" F4- F2 G2 | %30
 A4 G2 A2 | B4 A4 | F2 A4 AA | A4 G2 E2 | G4 F4 |!p!"^Tranquillo" B8 | _c4 [GB]4 | B2 =c2 d2 c2 | %38
 B2 =A2 B4 | [GB-]4 B4 | _c4 B4 | B2 =cd c2 B2 | B2 A=G A2!mf! A2 | d2 AB c2 B2 | B2 A=G A2 F2 | %45
 E2 F2 G4- | G4 F2 E2 | F4 !fermata!F4 ||[K:Eb]"^Tempo I" E2 FG A2 [GB][Ac] | B6 G2 | F2 GA B2 AF | %51
 G4 A4 | B3 c _d2 cB | c4 _d2 B2 | A2 =G2 [EB]4 | A2 G2 A2 [GB]2 | [EA]4 [FA]2 [E_GA]2 | %57
 F2 [EF]2 =G2 [F=A]2 | B3 [_AB] B4 | [Ac]4 [GB]4 | [FA]4 [EG]4 | [EF]2 [FA]2 G2 [DF]2 | %62
 E2 g>f e2 !fermata!G2 |][M:4/4]"^Andante" B4 c4 | B3 A G4 | E2 E2 FE F2 | [EG]4 F4 | E2 EF G2 GA | %68
 B4 c2 B=A | B4 G3!ff! B | c3 B A2 GF | G4 F4 || E2 F2 G4 | F2 G2 A4 | G2 =A2 B2 c2 | %75
 B2 =A2 B3!f! B | B2 _AG A3 A | A2 GF G3 F | G3 c B2 =A2 | B6 z B | B2 AG A3 A | A2 GF G3 _B | %82
 c3 B A2 GF | !fermata!G8 |][M:4/4]!p!"^Andante" G4 A2 G2 | F4 E2 D2 | E2 F2 G2 A2 | B2 AG F4 | %88
 F2 G2 A2 c2 | c2 BA G4 | c4 B2 =A2 | B4 _A2 G2 | F2 G2 A2 Bc | B3 A G4 | c4 B2 A2 | %95
 A2 GF !tenuto!G4 | G4 =A2 B2 | B4 =A2 G2 | =A2 B2 c2 BA | =A4 B4 || B4 c2 B2 | B2 AG A4 | %102
!p! A2 c2 B2 A2 | A2 GF !fermata!G4 |] %104
V:7
 [EG]4 [FA][EG] FE | E2 D2 E4 | E6 DE | C2 D2 E4 | E4 FE DC- | C2 =B,2 C4 | E3 [_DE] E2 =DC | B,8 | %8
 G4 FG [FA][EG] | G=E FE FCD_E | FEDC DEF[FA] | [FA]D [EG]F E4 |] x18 ||[M:4/4] E2 DE- EC _D2 | %14
 [EA][=DF] [C=E]2 CD _E2 | EC DF EG^F=F | E2 E2 EF [EG]2 | E4 F2 [E_G]2 | _D2 [CE]2 D4 | %19
 E2 [=DF]2 [EG]EFG | E2 F2 G2 A2 | x8 | C2 D2 E4- | E2 DC D2 [DF]2 | A2 E4- E2 | E2 D2 E2 A2 | %26
 G2 AB A4- | A2 _G2 F3 F | F=E _E[_DE] [CE]2 [DF][E_G] ||[K:Db] D4- D2 [CE]2 | F4 E2 D2 | %31
 G4 F2 E2 | D2 G2 F2 FE | D4 D2- D2 | C2- [CE]2 D2 [CE]2 | D2 E2 F2 EF | G2 F2 G2 E2 | %37
 x2 E2 F2 E2 | F4 F4 | D2 E2 F2 EF | G2 AG F4 | G4 =G4- | G2 F=E F2 _G2 | F2 F[=E=G] A2 _G2 | %44
 G2 F=E F_E D2 | D2 =D2 E4- | E2 C2 _D2 C2 | D4 [B,=D]4 ||[K:Eb] E2 DE- ED E2- | E2 GF E2 [C=E]2 | %50
 F2 =EF DF_ED | E4 FE F2 | G3 A B2 AG | A2 _G2 F4 | E6 FG | E2 E2 [DF]2 [_DE]2 | C4 C2 C2 | %57
 _D2 C2 D2 [CE]2 | [EG]2 [=DF]2 [EG]4 | E8 | C2 B,4 C2 | C2 C[B,D] E2 B,2 | B,2 B>A G2 E2 |] %63
[M:4/4] G4 A4 | G3 F E4 | C2 C2 DC D2 | E2 C2 D4 | E2 EF E4 | D2 [FA]2 E2 DC | D2 EF E3 G | %70
 A3 G F2 ED | E2 E2 D4 || E2 D2 E2 _D2 | C2 =E2 F2 _E2 | D2 ^F2 G4 | D2 CE [DF]3 G | G=EFE F3 F | %77
 FD_ED E3 D | E3 D G2 ^F2 | G2 G=F E2 x E | E4 D3 F | DC=B,D E3 [_DE] | E3 E CE =D2 | E8 |] %84
[M:4/4] E8 | D4 C2 =B,2 | C2 D2 E4 | DEFE D4 | F2 =E2 F2 A2 | A2 GF E4 | E2 G2 ^F4 | G4 =F2 E2 | %92
 D2 [_DE]2 E2 GA | G3 F E4 | E4 =E2 F2 | F2 _ED !tenuto!E2 !tenuto!F2 | =E4 F2 G2 | G4 F2 =E2 | %98
 F2 =E2 _E2 DE | F2 E2 D4 || G4 A2 G2 | G2 F=E F4 | F2 _E2 D2 D2 | F2 ED E4 |] %104
V:8
"^P" E,4 D,E, [F,C][G,B,] | [A,C]2"^P" [B,,B,-]2 [E,B,]4 | B,4 A,B,- B,2 | %3
"^P" [A,,A,]2 [B,,B,-]2 [E,B,]4 |"^Man." [C,C-]4 [F,C][G,=B,] [A,C]A, |"^P""^P" G,4- G,4 | %6
"^Man." B,3 B, C2 B,=A, |"^P" B,2 _A,2 G,4 |"^P" EDCB, E2 x2 | C4- CA,B,C |!p! B,6 CB, | %11
"^P" A,2 B,2-"^P" B,4 |] z18 ||[M:4/4]"^Man."!mf! G,2 B,2 A,2 G,2 |"^P" A,2 G,2 A,B,-B,C | %15
"^P" B,8- | B,2"^P"!8vb(! B,2 CDE_D | C4 C4 | A,2 =A,2 B,4 | B,6!8vb)! =B,_D | %20
!8vb(! C,,2 =D,,2 C,4- | C,4 B,,2 A,,2 | [C,,G,,]2 [F,,A,,]2 [E,,B,,]2 [C,,C,]2 | %23
 B,,!8vb)!G,,F,E, F,2 B,2 | E2 B,4- B,2 | C2"^P" B,A, B,4 | E_DC[B,E]"^P" E4 | C2 =A,2 B,3"^P" A, | %28
 B,_A,"^P" G,2"^P" A,4 ||[K:Db]"^Man." [D,A,]4 [B,,B,]2 [C,A,]2 | D2 _C2 B,2 [A,C]2 | _D2 =C6 | %32
 [F,A,]2 [E,A,-C]2 [D,A,D]2 [D,A,][E,G,] | D2 C2 B,4 |"^P" A,4- A,2"^P"!p! =A,2 | B,8 | %36
 A,4 D2"^P" C2 | D2"^P" =A,2 B,2- B,C | D2 C"^P"E D4 | x4"^P""^Man." D2 CD | E4 =D4 | %41
 E2- E_D"^P" C4 |"^P" D2 CB, C2"^P" C2 |"^P""^Man." D4 E4 | C4 DCD_C |!p! B,6 =A,2 | %46
 _A,6"^P""^P" [G,A,]2 | A,4"^P"!f! A,4 ||[K:Eb]"^Man."!mf! G,B,A,B, x2 [E,G,]"^P"A, | %49
 G,2"^P" B,A, G,2"^P" B,2 | C4"^P" B,"^Man."A,CB, | B,2 =A,2 B,4 | E2 _DC EFED | E4"^P""^P" _D4 | %54
 C2 B,2 _D4 | [A,C]2"^P"!f!!8vb(! E,,2 F,,2!8vb)! G,,2 |"^P"!8vb(! A,,2 G,,2 F,,2 E,,2 | %57
!ff! [_D,,A,,]2 [C,,=A,,]2 [B,,,B,,]2 [=A,,,A,,]2 | %58
 [G,,,G,,]2 [F,,,F,,]2 [E,,,E,,]2!8vb)! [G,,,G,,]2 | x4 x4 | F,E,D,B,, E,D,C,"^P"B,, | %61
"^pieno org."!8vb(! A,,2 F,,2 B,,2- B,,"^P"A,, | G,,2!8vb)! E,>D E2!mf! B,2 |][M:4/4]"^P"!f! E8 | %64
 D4 C4 | A,2 =A,2"^P" [F,B,]2 [F,B,]2 | B,2 =A,2"^P" B,2"^P" _A,2 | G,2 G,A, B,2 C2 | %68
"^P" B,2 A,2 G,2"^P" F,2 | B,4- B,3"^P" _D | E3 E =D2"^P" B,2- | B,2 B,C B,2"^P" _A,2 || %72
"^Man."!mf! G,2 A,2 B,4 | A,2 B,2 C2 =B,2 | _B,2 C2 D2"^P" E2 | F,4"^P" [B,,B,]3 [E,E] | %76
 C4- C3 =B, | _B,4- B,3 B, | B,3"^P" =A, D4 | D2"^P" B,A,"^P" G,2 z B, | B,4- B,3"^P" B, | %81
 B,A,G,=B, C3!ff!"^P" _B, | A,3 B,"^P" C2 B,A, |"^P" G,2 B,C !fermata!B,4 |] %84
[M:4/4]"^Man." B,4 C2 B,2 | B,2 A,2 G,2 G,2- | G,2 A,2 G,2 F,2- | F,2 B,2- B,4 | C6"^P" A,2 | B,8 | %90
"^P"!mf! [G,C-]2 C2 D2 C2 | D4 C4 | x4 x2 E2 | D4 E2 _D2 |"^P" C8 | %95
 [B,D]2"^P" [B,,B,]2"^Man." !tenuto![E,B,]2 !tenuto![_D,=B,]2 |"^P"!f! C2 _B,2 =A,2 G,2 | C8- | %98
 C2 C2 =A,2 B,C | C4"^P" B,_A,G,F, ||"^Man."!mp! E2 _D2"^P" C4 | C6 =B,2 | _B,2 A,2 G,2"^P" F,2 | %103
 B,4"^P" B,4 |] %104
V:9
 x8 | x8 | G,4 A,G,F,E, | x8 | x8 | G,2 G,,2 C,4 | E,3 E, A,=A, F,2 | B,,4 E,4 | E,4 E,2 D,E, | %9
 C,2 D,=E, F,4 | B,,2 D,F, A,G,F,D, | B,,2 C,D, !fermata!E,4 |] x18 ||[M:4/4] E,2 D,_D, C,2 B,,2 | %14
 A,,2 C,2 F,2 G,A, | B,2 B,,2 E,B,,C,D, | E,2!8vb(! G,,2 F,,2 E,,2 | A,,2 G,,2 F,,2 E,,2 | %18
 _D,,2 C,,2 [B,,,B,,]2 [_A,,,_A,,]2 | G,,2 F,,2 E,,2!8vb)! _D,,2 |!8vb(! x4 =E,4 | F,4 B,,2 =B,,2 | %22
 x8 | B,,8!8vb)! | A,2 G,F, G,2 C,2 | F,2 B,,2 G,2 F,2 | E,2 F,G, A,4 | F,2 E,2 _D,3 C, | %28
 B,,2 E,2 !fermata!A,,2 B,,C, ||[K:Db] x8 | D,2 =D,2 E,2 F,2 | G,2 E,2 A,2 G,2 | x8 | %33
 [F,A,]4 E,2 G,2 | A,2 A,,2 D,2 C,2 | B,,2 C,2 D,2 C,D, | E,2 D,2 G,4 | F,4 B,,2 E,2 | %38
 F,4 [B,,B,]2 _A,2 | G,2 C,2 D,2 G,F, | A,4 B,2 A,2 | G,2 E,2 =E,2 C,2 | F,6 _E,2 | %43
 D,2 F,=E, _E,2 C,2 | E,G, A,2 D,E,F,A, | G,2 F,2 E,2 D,2 | C,2 E,2 A,2 A,,2 | D,4 !fermata!B,,4 || %48
[K:Eb] E,2 D,_D, C,_C,B,,A,, | E,2 B,,2 E,2 =C,2 | A,2 G,F, B,,2 F,B,, | E,2 C,2 B,,C, D,2 | %52
 E,3 F, G,2 E,2 | A,2 =A,2 B,2 B,,2 | E,4 G,4 | x2!8vb(! x4!8vb)! x2 |!8vb(! x8 | x8 | %58
 x6!8vb)! x2 | A,,B,,C,D, E,F,G,E, | x8 |!8vb(! A,,G,, F,,2 G,,A,, B,,2 | E,6!8vb)! !fermata!E,2 |] %63
[M:4/4] E,2 G,2 A,4 | B,3 =B, C2 _B,2 | x8 | E,2 C,2 B,,4 | E,6 C,2 | B,,4 C,E,F,F,, | %69
 B,,2 C,D, E,3 E, | A,3 B, B,2 B,,2 | E,2 G,=A, B,2 B,,2 || E,6 =E,2 | F,8 | B,2 =A,2 G,2 [C,C]2 | %75
 x8 | =E,C,D,E, F,3 _E, | D,B,,C,D, E,3 A, | G,3 ^F, D,4 | G,2 B,,2 E,2 x G, | G,2 F,E, F,3 D, | %81
 B,,2 =B,,2 C,3 E, | A,3 G, F,2 B,,2 | !fermata!E,8 |][M:4/4] E,8 | B,,4 C,2 F,2 | %86
 E,2 D,2 C,2 =B,,2 | _B,,C,D,E, B,4 | A,2 G,2 F,2 D,2 | B,,2 C,D, E,4 | C,2 E,2 D,4 | %91
 G,4 A,2 =A,2 | B,4 C2 B,_A, | B,3 =B, C2 _B,2 | A,4 G,2 F,2 | x8 | C,8 | =E,4 F,2 B,2 | %98
 =A,2 G,2 F,4 | F,4 B,,4 || E,4 =E,4 | C,4 F,2 _E,2 | D,2 C,2 B,,4 | D,4 !fermata!E,4 |] %104
V:10
 x8 | x8 | x8 | x8 | x8 | x8 | x8 | x8 | x8 | x8 | x8 | x8 |] x18 ||[M:4/4] x8 | x8 | x8 | x8 | %17
 x8 | x8 | x8 | x8 | x8 | x8 | x8 | x8 | x8 | x8 | x8 | x8 ||[K:Db] x8 | x8 | x8 | x8 | x8 | x8 | %35
 x8 | x8 | F4 BA G2 | x8 | x8 | x8 | x8 | x8 | x8 | x8 | x8 | x8 | x8 ||[K:Eb] x7 x | x8 | x8 | %51
 x8 | x8 | x8 | x8 | x8 | x8 | x8 | B,4 B,2 _D2 |[I:staff +1] A,4 G,4 | x8 | x8 | x8 |][M:4/4] x8 | %64
 x8 | x8 | x8 | x8 |[I:staff -1] F2 x2 G2 F2 | x8 | x8 | x8 || x8 | x8 | x8 | F4 x4 | x8 | x8 | %78
 x8 | x8 | x8 | x8 | x8 | x8 |][M:4/4] x8 | x8 | x8 | x8 | x8 | x8 | x8 | x8 | x8 | x8 | x8 | x8 | %96
 x8 | x8 | x8 | x4 DFG_A || x8 | x8 | x8 | x8 |] %104
V:11
 x8 | x8 | x8 | x8 | x8 | x8 | x8 | x8 | x8 | x8 | x8 | x8 |] x18 ||[M:4/4] x8 | x8 | x8 | %16
 x2!8vb(! x6 | x8 | x8 | x6!8vb)! x2 |!8vb(! x8 | x8 | x8 | x!8vb)! x7 | x8 | x8 | x8 | x8 | x8 || %29
[K:Db] x8 | x8 | x8 | x8 | x8 | x8 | x8 | x8 | x8 | x8 | x8 | x8 | x8 | x8 | x8 | x8 | x8 | x8 | %47
 x8 ||[K:Eb] x4 A,F, x2 | x8 | x8 | x8 | x8 | x8 | x8 | x2!8vb(! x4!8vb)! x2 |!8vb(! x8 | x8 | %58
 x6!8vb)! x2 | x8 | x8 |!8vb(! x4 x4 | x2!8vb)! x6 |][M:4/4] x8 | x8 | x8 | x8 | x8 | x8 | x8 | %70
 x8 | x8 || x8 | x8 | x8 | x8 | x8 | x8 | x8 | x8 | x8 | x8 | x8 | x8 |][M:4/4] x8 | x8 | x8 | x8 | %88
 x8 | x8 | x8 | x8 | x8 | x8 | x8 | x8 | x8 | x8 | x8 | x8 || x8 | x8 | x8 | x8 |] %104

